Origami/32x32/apps/nip2.svg

<svg width="32" height="32" version="1" xmlns="http://www.w3.org/2000/svg">
 <path d="m3.4 4.0000001c-0.7756 0-1.4 0.6194444-1.4 1.3888888v16.666667 5.555555c0 0.769445 0.6244 1.388889 1.4 1.388889h25.2c0.7756 0 1.4-0.619444 1.4-1.388889v-5.555555-16.666667c0-0.7694444-0.6244-1.3888888-1.4-1.3888888h-25.2z" style="opacity:.2"/>
 <path d="m3.4 3.0000001c-0.7756 0-1.4 0.6194444-1.4 1.3888888v16.666667 5.555555c0 0.769445 0.6244 1.388889 1.4 1.388889h25.2c0.7756 0 1.4-0.619444 1.4-1.388889v-5.555555-16.666667c0-0.7694444-0.6244-1.3888888-1.4-1.3888888h-25.2z" style="fill:#cccccc"/>
 <rect x="4" y="5" width="24" height="21" style="fill:#494949"/>
 <path d="m3.9999996 14.499999s2.1176471-2.499999 4.9411767-2.499999c2.8235297 0 5.0283057 2.050235 7.7647057 2 2.736401-0.05023 4.941177-5 7.058824-5s4.235295 1.299999 4.235295 1.299999v14.700001h-24.000001z" style="opacity:.1"/>
 <path d="m3.9999996 15.499999s2.1176471-2.499999 4.9411767-2.499999c2.8235297 0 5.0283057 2.050235 7.7647057 2 2.736401-0.05023 4.941177-5 7.058824-5s4.235295 1.299999 4.235295 1.299999v14.700001h-24.000001z" style="fill:#4966ff"/>
 <path d="m3.9999996 17.299999s0.7058824 2.800001 2.1176471 2.800001c1.4117648 0 3.5294119-3.1 6.3529413-3.1 2.82353 0 7.058824 3.1 9.176471 3.1s6.352942-2.800001 6.352942-2.800001v7.700001h-24.000001z" style="opacity:.1"/>
 <path d="m3.9999996 18.299999s0.7058824 2.800001 2.1176471 2.800001c1.4117648 0 3.5294119-3.1 6.3529413-3.1 2.82353 0 7.058824 3.1 9.176471 3.1s6.352942-2.800001 6.352942-2.800001v7.700001h-24.000001z" style="fill:#19c171"/>
 <path d="m23.765625 10c-2.117647 0-4.324146 4.94977-7.060547 5-2.7364 0.050235-4.940142-2-7.7636718-2-2.8235295 0-4.9414062 2.5-4.9414062 2.5v1s2.1178767-2.5 4.9414062-2.5c2.8235298 0 5.0272718 2.050235 7.7636718 2 2.736401-0.05023 4.9429-5 7.060547-5s4.234375 1.300781 4.234375 1.300781v-1s-2.116728-1.300781-4.234375-1.300781z" style="fill:#ffffff;opacity:.1"/>
 <path d="m12.470703 18c-2.8235293 0-4.9417507 3.099609-6.3535155 3.099609-1.4117647 0-2.1171875-2.798828-2.1171875-2.798828v1s0.7054228 2.798828 2.1171875 2.798828c1.4117648 0 3.5299862-3.099609 6.3535155-3.099609 2.82353 0 7.058134 3.099609 9.175781 3.099609s6.353516-2.798828 6.353516-2.798828v-1s-4.235869 2.798828-6.353516 2.798828-6.352251-3.099609-9.175781-3.099609z" style="fill:#ffffff;opacity:.1"/>
 <path d="M 3.4003906 3 C 2.6247906 3 2 3.6192275 2 4.3886719 L 2 5.3886719 C 2 4.6192275 2.6247906 4 3.4003906 4 L 28.599609 4 C 29.375209 4 30 4.6192275 30 5.3886719 L 30 4.3886719 C 30 3.6192275 29.375209 3 28.599609 3 L 3.4003906 3 z" style="fill:#ffffff;opacity:.1"/>
</svg>

<svg xmlns="http://www.w3.org/2000/svg" width="32" height="32" version="1">
 <path style="opacity:0.2" d="m 3.4,4.0000001 c -0.7756,0 -1.4,0.6194444 -1.4,1.3888888 L 2,22.055556 2,27.611111 C 2,28.380556 2.6244,29 3.4,29 l 25.2,0 C 29.3756,29 30,28.380556 30,27.611111 L 30,22.055556 30,5.3888889 C 30,4.6194445 29.3756,4.0000001 28.6,4.0000001 l -25.2,0 z"/>
 <path style="fill:#cccccc" d="m 3.4,3.0000001 c -0.7756,0 -1.4,0.6194444 -1.4,1.3888888 L 2,21.055556 2,26.611111 C 2,27.380556 2.6244,28 3.4,28 l 25.2,0 C 29.3756,28 30,27.380556 30,26.611111 L 30,21.055556 30,4.3888889 C 30,3.6194445 29.3756,3.0000001 28.6,3.0000001 l -25.2,0 z"/>
 <rect style="fill:#494949" width="24" height="21" x="4" y="5"/>
 <path style="opacity:0.1" d="m 3.9999996,14.499999 c 0,0 2.1176471,-2.499999 4.9411767,-2.499999 2.8235297,0 5.0283057,2.050235 7.7647057,2 2.736401,-0.05023 4.941177,-5 7.058824,-5 2.117647,0 4.235295,1.299999 4.235295,1.299999 l 0,14.700001 -24.0000014,0 z"/>
 <path style="fill:#4966ff" d="m 3.9999996,15.499999 c 0,0 2.1176471,-2.499999 4.9411767,-2.499999 2.8235297,0 5.0283057,2.050235 7.7647057,2 2.736401,-0.05023 4.941177,-5 7.058824,-5 2.117647,0 4.235295,1.299999 4.235295,1.299999 l 0,14.700001 -24.0000014,0 z"/>
 <path style="opacity:0.1" d="m 3.9999996,17.299999 c 0,0 0.7058824,2.800001 2.1176471,2.800001 1.4117648,0 3.5294119,-3.1 6.3529413,-3.1 2.82353,0 7.058824,3.1 9.176471,3.1 2.117647,0 6.352942,-2.800001 6.352942,-2.800001 l 0,7.700001 -24.0000014,0 z"/>
 <path style="fill:#19c171" d="m 3.9999996,18.299999 c 0,0 0.7058824,2.800001 2.1176471,2.800001 1.4117648,0 3.5294119,-3.1 6.3529413,-3.1 2.82353,0 7.058824,3.1 9.176471,3.1 2.117647,0 6.352942,-2.800001 6.352942,-2.800001 l 0,7.700001 -24.0000014,0 z"/>
 <path style="opacity:0.1;fill:#ffffff" d="M 23.765625 10 C 21.647978 10 19.441479 14.94977 16.705078 15 C 13.968678 15.050235 11.764936 13 8.9414062 13 C 6.1178767 13 4 15.5 4 15.5 L 4 16.5 C 4 16.5 6.1178767 14 8.9414062 14 C 11.764936 14 13.968678 16.050235 16.705078 16 C 19.441479 15.94977 21.647978 11 23.765625 11 C 25.883272 11 28 12.300781 28 12.300781 L 28 11.300781 C 28 11.300781 25.883272 10 23.765625 10 z"/>
 <path style="opacity:0.1;fill:#ffffff" d="M 12.470703 18 C 9.6471737 18 7.5289523 21.099609 6.1171875 21.099609 C 4.7054228 21.099609 4 18.300781 4 18.300781 L 4 19.300781 C 4 19.300781 4.7054228 22.099609 6.1171875 22.099609 C 7.5289523 22.099609 9.6471737 19 12.470703 19 C 15.294233 19 19.528837 22.099609 21.646484 22.099609 C 23.764131 22.099609 28 19.300781 28 19.300781 L 28 18.300781 C 28 18.300781 23.764131 21.099609 21.646484 21.099609 C 19.528837 21.099609 15.294233 18 12.470703 18 z"/>
 <path style="fill:#ffffff;opacity:0.1" d="M 3.4003906 3 C 2.6247906 3 2 3.6192275 2 4.3886719 L 2 5.3886719 C 2 4.6192275 2.6247906 4 3.4003906 4 L 28.599609 4 C 29.375209 4 30 4.6192275 30 5.3886719 L 30 4.3886719 C 30 3.6192275 29.375209 3 28.599609 3 L 3.4003906 3 z"/>
</svg>
